Numix-GalliumOS/16/mimetypes/text-x-c.svg

<?xml version="1.0" encoding="UTF-8" standalone="no"?>
<svg
   xmlns:dc="http://purl.org/dc/elements/1.1/"
   xmlns:cc="http://creativecommons.org/ns#"
   xmlns:rdf="http://www.w3.org/1999/02/22-rdf-syntax-ns#"
   xmlns:svg="http://www.w3.org/2000/svg"
   xmlns="http://www.w3.org/2000/svg"
   xmlns:sodipodi="http://sodipodi.sourceforge.net/DTD/sodipodi-0.dtd"
   xmlns:inkscape="http://www.inkscape.org/namespaces/inkscape"
   width="16"
   height="16"
   viewBox="0 0 16 16"
   id="svg2"
   version="1.1"
   inkscape:version="0.48.5 r10040"
   sodipodi:docname="text-x-c.svg">
  <metadata
     id="metadata16">
    <rdf:RDF>
      <cc:Work
         rdf:about="">
        <dc:format>image/svg+xml</dc:format>
        <dc:type
           rdf:resource="http://purl.org/dc/dcmitype/StillImage" />
      </cc:Work>
    </rdf:RDF>
  </metadata>
  <defs
     id="defs14" />
  <sodipodi:namedview
     pagecolor="#ffffff"
     bordercolor="#666666"
     borderopacity="1"
     objecttolerance="10"
     gridtolerance="10"
     guidetolerance="10"
     inkscape:pageopacity="0"
     inkscape:pageshadow="2"
     inkscape:window-width="1280"
     inkscape:window-height="970"
     id="namedview12"
     showgrid="true"
     inkscape:zoom="14.75"
     inkscape:cx="8.2279132"
     inkscape:cy="11.591792"
     inkscape:window-x="0"
     inkscape:window-y="0"
     inkscape:window-maximized="1"
     inkscape:current-layer="svg2">
    <inkscape:grid
       type="xygrid"
       id="grid3004" />
  </sodipodi:namedview>
  <path
     style="fill:#2d2d2d;fill-opacity:1"
     d="M 2.667969,-4.46e-4 C 2.324219,-4.46e-4 2,0.337812 2,0.696447 L 2,15.303108 C 2,15.641365 2.34375,16 2.667969,16 l 10.664062,0 C 13.65625,16 14,15.641365 14,15.303108 l 0,-11.303554 -4,-4 z"
     id="path4-9"
     inkscape:connector-curvature="0"
     sodipodi:nodetypes="ssssssccs" />
  <path
     style="fill:#000000;fill-opacity:0.19599998"
     d="m 10.583223,3.331585 0.0154,0.01953 0.04005,-0.01953 z m 0.02978,0.667969 3.387,3.6640618 0,-3.6640618 z"
     id="path6"
     inkscape:connector-curvature="0"
     sodipodi:nodetypes="cccccccc" />
  <path
     style="fill:#dcdcdc"
     d="m 4.3907068,9.2732123 c 0,-0.4333259 0.089837,-0.8613676 0.2695083,-1.2841252 C 4.8398864,7.5610454 5.0988264,7.1805636 5.431747,6.8476416 5.7752386,6.5147197 6.1927107,6.2452114 6.6788832,6.0338326 7.1703386,5.8277393 7.7304917,5.7273341 8.3593439,5.7273341 c 0.7398258,0 1.3792463,0.142681 1.9182631,0.4280417 0.544301,0.2906461 0.945919,0.6605584 1.199573,1.1255917 L 10.240615,8.010225 C 10.145495,7.8094145 10.029236,7.6403114 9.8812712,7.5082 9.7333061,7.3708031 9.5694872,7.2598296 9.3898159,7.1805636 9.2154287,7.0960121 9.0410402,7.0431667 8.8507993,7.0061751 8.6658439,6.9691848 8.4861712,6.9480456 8.3170682,6.9480456 c -0.385766,0 -0.7186879,0.068699 -1.0040486,0.2113787 C 7.0223734,7.2968212 6.7792871,7.481778 6.5890462,7.7090092 6.3988053,7.9309576 6.2561257,8.1846122 6.1557204,8.4699728 c -0.095121,0.280078 -0.142681,0.5601545 -0.142681,0.8455152 0,0.3117841 0.058129,0.6129999 0.1638189,0.90893 0.1162576,0.285361 0.2800765,0.5443 0.4808857,0.760964 0.2113788,0.221947 0.4597492,0.396334 0.7451113,0.533731 0.2906461,0.132111 0.6024288,0.200809 0.945919,0.200809 0.1796727,0 0.3646295,-0.02114 0.5495849,-0.06341 0.1849568,-0.03699 0.3646294,-0.100405 0.5390166,-0.19024 0.1796713,-0.08455 0.3434902,-0.195526 0.4914553,-0.327637 0.1479649,-0.142681 0.2642239,-0.3065 0.3593439,-0.502025 l 1.321118,0.64999 C 11.482466,11.556103 11.297509,11.793905 11.059708,12 c -0.232516,0.200809 -0.502025,0.369912 -0.808525,0.507309 -0.301214,0.14268 -0.6182822,0.248369 -0.9564882,0.322352 -0.3329206,0.07398 -0.6658426,0.110974 -0.9934804,0.110974 -0.5760068,0 -1.1044538,-0.105689 -1.5853409,-0.322352 C 6.2402719,12.406904 5.8280826,12.126827 5.4793083,11.788621 5.1358167,11.439846 4.8663098,11.048794 4.6707834,10.615468 4.4858279,10.176857 4.3907068,9.7276773 4.3907068,9.2732123"
     id="path10"
     inkscape:connector-curvature="0" />
  <path
     style="fill:#ffffff;fill-opacity:0.39200003"
     d="m 10,-4.46e-4 3.996396,4 -3.383784,0 C 10.313513,3.999554 10,3.682437 10,3.383338 z"
     id="path8"
     inkscape:connector-curvature="0"
     sodipodi:nodetypes="ccssc" />
</svg>

<svg xmlns="http://www.w3.org/2000/svg" viewBox="0 0 16 16">
 <path d="m 2.668 0 c -0.344 0 -0.668 0.338 -0.668 0.697 l 0 14.607 c 0 0.338 0.344 0.697 0.668 0.697 l 10.664 0 c 0.324 0 0.668 -0.359 0.668 -0.697 l 0 -11.304 -4 -4 z" style="fill:#2d2d2d;fill-opacity:1"/>
 <path d="m 10.583 3.332 0.015 0.02 0.04 -0.02 z m 0.03 0.668 3.387 3.664 0 -3.664 z" style="fill:#000;fill-opacity:0.196"/>
 <path d="m 4.391 9.273 c 0 -0.433 0.09 -0.861 0.27 -1.284 c 0.18 -0.428 0.439 -0.809 0.772 -1.141 0.343 -0.333 0.761 -0.602 1.247 -0.814 0.491 -0.206 1.052 -0.306 1.68 -0.306 c 0.74 0 1.379 0.143 1.918 0.428 0.544 0.291 0.946 0.661 1.2 1.126 l -1.237 0.729 c -0.095 -0.201 -0.211 -0.37 -0.359 -0.502 -0.148 -0.137 -0.312 -0.248 -0.491 -0.328 -0.174 -0.085 -0.349 -0.137 -0.539 -0.174 -0.185 -0.037 -0.365 -0.058 -0.534 -0.058 c -0.386 0 -0.719 0.069 -1 0.211 c -0.291 0.137 -0.534 0.322 -0.724 0.55 -0.19 0.222 -0.333 0.476 -0.433 0.761 c -0.095 0.28 -0.143 0.56 -0.143 0.846 0 0.312 0.058 0.613 0.164 0.909 0.116 0.285 0.28 0.544 0.481 0.761 0.211 0.222 0.46 0.396 0.745 0.534 0.291 0.132 0.602 0.201 0.946 0.201 0.18 0 0.365 -0.021 0.55 -0.063 0.185 -0.037 0.365 -0.1 0.539 -0.19 0.18 -0.085 0.343 -0.196 0.491 -0.328 0.148 -0.143 0.264 -0.306 0.359 -0.502 l 1.321 0.65 c -0.127 0.27 -0.312 0.507 -0.55 0.713 c -0.233 0.201 -0.502 0.37 -0.809 0.507 -0.301 0.143 -0.618 0.248 -0.956 0.322 -0.333 0.074 -0.666 0.111 -0.993 0.111 -0.576 0 -1.104 -0.106 -1.585 -0.322 c -0.476 -0.211 -0.888 -0.491 -1.237 -0.83 -0.343 -0.349 -0.613 -0.74 -0.809 -1.173 -0.185 -0.439 -0.28 -0.888 -0.28 -1.342" style="fill:#dcdcdc"/>
 <path d="m 10 0 3.996 4 -3.384 0 c -0.299 0 -0.613 -0.317 -0.613 -0.616 z" style="fill:#fff;fill-opacity:0.392"/>
</svg>
